X:1
T:Title
%%score { ( 1 2 ) | ( 3 4 ) }
L:1/8
Q:1/4=94
M:2/4
K:G
V:1 treble nm="Grand Piano"
V:2 treble 
V:3 bass 
V:4 bass 
V:1
 .D2 z E | GG G2 | [FA]>[FA] [FA][Ac] | Bd d2 | .D2 z E | GG G2 | [FA]>[FA] [FA][Fd] | %7
w: J.~E.~Gould *|||||||
 [DGB][B,DG] [B,DG]2 | .D2 z E | GG G2 | [FA]>[FA] [FA][Ac] | Bd d2 | .D2 z E | GG G2 | %14
w: |||||||
 [FA]>[FA] [FA][Fd] | [DGB][B,DG] [B,DG]2 | d>d de | dB [DG][FA] | B>B cB | [GB][FA] [FA]2 | %20
w: ||||||
 d>d de | dB [DG][FA] | B>B Bd | A>[B,DG] [B,DG]2 |] %24
w: ||||
V:2
 B,4 | x4 | x4 | x4 | B,4 | x4 | x4 | x4 | B,4 | x4 | x4 | x4 | B,4 | x4 | x4 | x4 | x4 | x4 | x4 | %19
 x4 | x4 | x4 | x4 | x4 |] %24
V:3
 z D DC | [B,D]4 | [D,D]>[D,D] [D,D][D,D] | [G,DG][G,B,G] [G,B,G]2 | z D DC | [B,D]4 | %6
 [D,D]>[D,D] [D,D][D,D] | G,G,, G,,2 | z D DC | [B,D]4 | [D,D]>[D,D] [D,D][D,D] | %11
 [G,DG][G,B,G] [G,B,G]2 | z D DC | [B,D]4 | [D,D]>[D,D] [D,D][D,D] | G,G,, G,,2 | %16
 [G,B,G]>[G,B,G] [G,B,G][G,CG] | [G,B,G][G,G][K:bass] [B,,G,][D,D] | %18
 [G,G]>[G,D][K:bass] [F,A,D][G,D] | [D,D][D,D] [D,D]2 | [G,B,G]>[G,B,G] [G,B,G][G,CG] | %21
 [G,B,G][G,G][K:bass] [B,,G,][D,D] | [G,DG]>[G,D][K:bass] [G,D][G,B,D] | [D,D]>G,, G,,2 |] %24
V:4
 G,,4- | G,,4 | x4 | x4 | G,,4- | G,,4 | x4 | x4 | G,,4- | G,,4 | x4 | x4 | G,,4- | G,,4 | x4 | %15
 x4 | x4 | x2[K:bass] x2 | x2[K:bass] x2 | x4 | x4 | x2[K:bass] x2 | x2[K:bass] x2 | x4 |] %24

